src/actions/16/flashlight-off.svg

<svg height="16" viewBox="0 0 4.2333332 4.2333335" width="16" xmlns="http://www.w3.org/2000/svg"><style type="text/css" id="current-color-scheme">.ColorScheme-Text{color:#363636;}.ColorScheme-NegativeText{color:#d19494;}</style><g transform="translate(0 -292.76666)"><path d="m7.0273438 5 2.0039062 2h.96875v.96875l1 .9980469v-1.9667969c.356978-.6183307 1.016502-.9994331 1.730469-1h1.269531v4h-1.269531c-.333719-.000265-.652906-.090283-.9375-.2421875l1.24414 1.2421875h.962891 1v-6h-1-1.269531c-.851739.0015874-1.662651.3651528-2.230469 1h-1.5v-1zm-6.0273438 1v1 2 1h6.9824219l-1-1h-4.9824219v-2h2.9824219l-1-1z" style="fill:currentColor;fill-opacity:1;stroke:none" class="ColorScheme-Text" transform="matrix(.26458333 0 0 .26458333 0 292.76666)"/><path d="m.52916667 293.48291.1870886-.18709 2.98791133 2.98106-.1870891.19394z" style="fill:currentColor;fill-opacity:1;stroke:none" class="ColorScheme-NegativeText"/></g></svg>

<svg xmlns="http://www.w3.org/2000/svg" width="16" height="16" viewBox="0 0 4.233 4.233">
    <path d="m7.027 5 2.004 2H10v.969l1 .998V7a2 2 0 0 1 1.73-1H14v4h-1.27c-.333 0-.652-.09-.937-.242L13.037 11H15V5h-2.27a3 3 0 0 0-2.23 1H9V5zM1 6v4h6.982l-1-1H2V7h2.982l-1-1z" style="fill:currentColor;fill-opacity:1;stroke:none;color:#050505;opacity:.7" transform="scale(.26458)"/>
    <path d="m.53 293.483.186-.187 2.988 2.98-.187.195z" style="fill:currentColor;fill-opacity:1;stroke:none;color:#d98c8c" transform="translate(0 -292.767)"/>
</svg>
